Numix-Circle/48x48/apps/chrome-koegeopamaoljbmhnfjbclbocehhgmkm-Default.svg

<svg xmlns="http://www.w3.org/2000/svg" viewBox="0 0 48 48">
 <defs>
  <linearGradient id="linearGradient3764" x1="1" x2="47" gradientUnits="userSpaceOnUse" gradientTransform="matrix(0,-1,1,0,-1.5e-6,47.999998)">
   <stop style="stop-color:#5b8fb3;stop-opacity:1"/>
   <stop offset="1" style="stop-color:#6998b9;stop-opacity:1"/>
  </linearGradient>
 </defs>
 <g>
  <path d="m 36.31 5 c 5.859 4.062 9.688 10.831 9.688 18.5 c 0 12.426 -10.07 22.5 -22.5 22.5 c -7.669 0 -14.438 -3.828 -18.5 -9.688 c 1.037 1.822 2.306 3.499 3.781 4.969 c 4.085 3.712 9.514 5.969 15.469 5.969 c 12.703 0 23 -10.298 23 -23 c 0 -5.954 -2.256 -11.384 -5.969 -15.469 c -1.469 -1.475 -3.147 -2.744 -4.969 -3.781 z m 4.969 3.781 c 3.854 4.113 6.219 9.637 6.219 15.719 c 0 12.703 -10.297 23 -23 23 c -6.081 0 -11.606 -2.364 -15.719 -6.219 c 4.16 4.144 9.883 6.719 16.219 6.719 c 12.703 0 23 -10.298 23 -23 c 0 -6.335 -2.575 -12.06 -6.719 -16.219 z" style="opacity:0.05"/>
  <path d="m 41.28 8.781 c 3.712 4.085 5.969 9.514 5.969 15.469 c 0 12.703 -10.297 23 -23 23 c -5.954 0 -11.384 -2.256 -15.469 -5.969 c 4.113 3.854 9.637 6.219 15.719 6.219 c 12.703 0 23 -10.298 23 -23 c 0 -6.081 -2.364 -11.606 -6.219 -15.719 z" style="opacity:0.1"/>
  <path d="m 31.25 2.375 c 8.615 3.154 14.75 11.417 14.75 21.13 c 0 12.426 -10.07 22.5 -22.5 22.5 c -9.708 0 -17.971 -6.135 -21.12 -14.75 a 23 23 0 0 0 44.875 -7 a 23 23 0 0 0 -16 -21.875 z" style="opacity:0.2"/>
 </g>
 <g>
  <path d="m 24 1 c 12.703 0 23 10.297 23 23 c 0 12.703 -10.297 23 -23 23 -12.703 0 -23 -10.297 -23 -23 0 -12.703 10.297 -23 23 -23 z" style="fill:url(#linearGradient3764);fill-opacity:1"/>
 </g>
 <g>
  <path d="m 40.03 7.531 c 3.712 4.084 5.969 9.514 5.969 15.469 0 12.703 -10.297 23 -23 23 c -5.954 0 -11.384 -2.256 -15.469 -5.969 4.178 4.291 10.01 6.969 16.469 6.969 c 12.703 0 23 -10.298 23 -23 0 -6.462 -2.677 -12.291 -6.969 -16.469 z" style="opacity:0.1"/>
 </g>
 <g transform="scale(3.543307,3.543307)">
  <g transform="translate(0.2822222,0.28222218)" style="fill:#000;opacity:0.1;fill-opacity:1">
   <path d="m 16 13 a 4 4 0 0 0 -4 4 4 4 0 0 0 4 4 4 4 0 0 0 3.459 -2 L 36.23 19 C 37.21 19 38 18.21 38 17.229 l 0 -0.458 C 38 15.79 37.21 15 36.23 15 L 19.459 15 A 4 4 0 0 0 16 13 m 8 8 a 4 4 0 0 0 -4 4 4 4 0 0 0 4 4 4 4 0 0 0 3.459 -2 l 8.771 0 C 37.21 27 38 26.21 38 25.23 l 0 -0.459 C 38 23.79 37.21 23 36.23 23 l -8.771 0 A 4 4 0 0 0 24 21 m -8 8 a 4 4 0 0 0 -4 4 4 4 0 0 0 4 4 4 4 0 0 0 3.459 -2 L 36.23 35 C 37.21 35 38 34.21 38 33.23 l 0 -0.459 C 38 31.79 37.21 31 36.23 31 L 19.459 31 A 4 4 0 0 0 16 29" transform="matrix(0.28222223,0,0,0.28222223,-0.2822222,-0.28222218)" style="stroke:none"/>
  </g>
  <g>
   <rect rx="0.5" y="3.951" x="4.233" height="1.129" width="6.209" style="fill:#c5d7e4;fill-opacity:1;stroke:none"/>
   <ellipse transform="matrix(0.25086419,0,0,0.18814815,16.901975,1.8814813)" cx="-50.5" cy="14" rx="4.5" ry="6" style="fill:#f9f9f9;fill-opacity:1;stroke:none"/>
   <rect rx="0.5" width="6.209" height="1.129" x="4.233" y="8.467" style="fill:#c5d7e4;fill-opacity:1;stroke:none"/>
   <ellipse transform="matrix(0.25086419,0,0,0.18814815,16.901975,6.3970373)" cx="-50.5" cy="14" rx="4.5" ry="6" style="fill:#f9f9f9;fill-opacity:1;stroke:none"/>
   <rect rx="0.5" width="3.951" height="1.129" x="6.491" y="6.209" style="fill:#c5d7e4;fill-opacity:1;stroke:none"/>
   <ellipse transform="matrix(0.25086419,0,0,0.18814815,19.159751,4.1392592)" cx="-50.5" cy="14" rx="4.5" ry="6" style="fill:#f9f9f9;fill-opacity:1;stroke:none"/>
  </g>
 </g>
</svg>

<svg xmlns="http://www.w3.org/2000/svg" width="48" viewBox="0 0 13.546667 13.546667" height="48">
 <defs>
  <linearGradient id="linearGradient4033" x1="-27" x2="-24" gradientUnits="userSpaceOnUse">
   <stop style="stop-color:#5389af;stop-opacity:1"/>
   <stop offset="1" style="stop-color:#709dbd;stop-opacity:1"/>
  </linearGradient>
 </defs>
 <g>
  <path d="m 25 2 c -12.703 0 -23 10.297 -23 23 0 6.367 2.601 12.12 6.781 16.281 4.085 3.712 9.514 5.969 15.469 5.969 c 12.703 0 23 -10.297 23 -23 0 -5.954 -2.256 -11.384 -5.969 -15.469 c -4.165 -4.181 -9.914 -6.781 -16.281 -6.781 z m 16.281 6.781 c 3.854 4.113 6.219 9.637 6.219 15.719 c 0 12.703 -10.297 23 -23 23 c -6.081 0 -11.606 -2.364 -15.719 -6.219 4.16 4.144 9.883 6.719 16.219 6.719 12.703 0 23 -10.297 23 -23 0 -6.335 -2.575 -12.06 -6.719 -16.219 z" transform="scale(0.28222223,0.28222223)" style="fill:#000;opacity:0.05;fill-opacity:1;stroke:none"/>
  <path d="m 41.28 8.781 c 3.712 4.085 5.969 9.514 5.969 15.469 c 0 12.703 -10.297 23 -23 23 -5.954 0 -11.384 -2.256 -15.469 -5.969 c 4.113 3.854 9.637 6.219 15.719 6.219 c 12.703 0 23 -10.297 23 -23 0 -6.081 -2.364 -11.606 -6.219 -15.719 z" transform="scale(0.28222223,0.28222223)" style="fill:#000;opacity:0.1;fill-opacity:1;stroke:none"/>
  <path transform="matrix(4.3274074,0,0,3.2455556,117.19278,-35.348334)" d="m -24 13 a 1.5 2 0 1 1 -3 0 1.5 2 0 1 1 3 0 z" style="fill:#000;opacity:0.2;fill-opacity:1;stroke:none"/>
 </g>
 <g>
  <path d="m -24 13 a 1.5 2 0 1 1 -3 0 1.5 2 0 1 1 3 0 z" transform="matrix(0,-4.3274075,3.2455556,0,-35.418894,-103.57556)" style="fill:url(#linearGradient4033);fill-opacity:1;stroke:none"/>
  <path d="m 40.03 7.531 c 3.712 4.085 5.969 9.514 5.969 15.469 c 0 12.703 -10.297 23 -23 23 c -5.954 0 -11.384 -2.256 -15.469 -5.969 c 4.178 4.291 10.01 6.969 16.469 6.969 c 12.703 0 23 -10.297 23 -23 c 0 -6.462 -2.677 -12.291 -6.969 -16.469 z" transform="scale(0.28222223,0.28222223)" style="fill:#000;opacity:0.1;fill-opacity:1;stroke:none"/>
 </g>
 <g>
  <g transform="translate(0.2822222,0.28222218)" style="fill:#000;opacity:0.1;fill-opacity:1">
   <path d="M 16 13 A 4 4 0 0 0 12 17 A 4 4 0 0 0 16 21 A 4 4 0 0 0 19.459 19 L 36.23 19 C 37.21 19 38 18.21 38 17.229 L 38 16.771 C 38 15.79 37.21 15 36.23 15 L 19.459 15 A 4 4 0 0 0 16 13 z M 24 21 A 4 4 0 0 0 20 25 A 4 4 0 0 0 24 29 A 4 4 0 0 0 27.459 27 L 36.23 27 C 37.21 27 38 26.21 38 25.23 L 38 24.771 C 38 23.79 37.21 23 36.23 23 L 27.459 23 A 4 4 0 0 0 24 21 z M 16 29 A 4 4 0 0 0 12 33 A 4 4 0 0 0 16 37 A 4 4 0 0 0 19.459 35 L 36.23 35 C 37.21 35 38 34.21 38 33.23 L 38 32.771 C 38 31.79 37.21 31 36.23 31 L 19.459 31 A 4 4 0 0 0 16 29 z" transform="matrix(0.28222223,0,0,0.28222223,-0.2822222,-0.28222218)" style="stroke:none"/>
  </g>
  <g>
   <rect rx="0.5" y="3.951" x="4.233" height="1.129" width="6.209" style="fill:#c5d7e4;fill-opacity:1;stroke:none"/>
   <ellipse transform="matrix(0.25086419,0,0,0.18814815,16.901975,1.8814813)" cx="-50.5" cy="14" rx="4.5" ry="6" style="fill:#f9f9f9;fill-opacity:1;stroke:none"/>
   <rect rx="0.5" width="6.209" height="1.129" x="4.233" y="8.467" style="fill:#c5d7e4;fill-opacity:1;stroke:none"/>
   <ellipse transform="matrix(0.25086419,0,0,0.18814815,16.901975,6.3970373)" cx="-50.5" cy="14" rx="4.5" ry="6" style="fill:#f9f9f9;fill-opacity:1;stroke:none"/>
   <rect rx="0.5" width="3.951" height="1.129" x="6.491" y="6.209" style="fill:#c5d7e4;fill-opacity:1;stroke:none"/>
   <ellipse transform="matrix(0.25086419,0,0,0.18814815,19.159751,4.1392592)" cx="-50.5" cy="14" rx="4.5" ry="6" style="fill:#f9f9f9;fill-opacity:1;stroke:none"/>
  </g>
 </g>
</svg>
